svg/color/datx.svg

<?xml version="1.0" encoding="UTF-8" ?>
<!DOCTYPE svg PUBLIC "-//W3C//DTD SVG 1.1//EN" "http://www.w3.org/Graphics/SVG/1.1/DTD/svg11.dtd">
<svg width="250pt" height="250pt" viewBox="0 0 250 250" version="1.1" xmlns="http://www.w3.org/2000/svg">
<g id="#282629ff">
<path fill="#282629" opacity="1.00" d=" M 0.00 0.00 L 250.00 0.00 L 250.00 250.00 L 0.00 250.00 L 0.00 0.00 M 144.54 13.46 C 109.68 48.30 74.86 83.16 40.00 118.00 C 38.04 120.00 36.13 122.05 34.19 124.06 C 70.75 161.08 107.81 197.62 144.41 234.61 C 145.36 236.02 147.64 236.04 148.59 234.62 C 163.44 219.45 178.60 204.61 193.52 189.51 C 197.07 185.80 201.11 182.53 204.32 178.50 C 204.69 173.68 204.34 168.83 204.45 164.00 C 204.35 132.46 204.65 100.90 204.31 69.37 C 185.77 50.70 167.05 32.15 148.51 13.47 C 147.59 12.09 145.45 12.04 144.54 13.46 Z" />
<path fill="#282629" opacity="1.00" d=" M 145.91 35.65 C 148.66 35.52 148.27 39.57 149.15 41.39 C 155.23 59.59 160.88 77.97 167.46 96.00 C 152.12 112.13 136.03 127.54 120.43 143.42 C 115.45 148.28 110.76 153.46 105.40 157.91 C 107.64 149.13 111.19 140.75 113.84 132.09 C 124.52 99.95 135.18 67.77 145.91 35.65 Z" />
<path fill="#282629" opacity="1.00" d=" M 48.11 124.00 C 76.88 94.96 106.01 66.26 134.70 37.17 C 133.52 42.91 131.29 48.35 129.49 53.92 C 117.64 90.34 105.12 126.55 93.31 162.99 C 92.67 164.61 91.87 166.16 91.21 167.77 C 89.66 165.38 87.43 163.56 85.46 161.53 C 73.02 149.01 60.43 136.64 48.11 124.00 Z" />
<path fill="#282629" opacity="1.00" d=" M 158.52 37.34 C 169.18 48.39 180.21 59.10 191.00 70.02 C 191.89 70.74 191.61 72.17 190.82 72.85 C 188.67 75.35 186.17 77.52 183.88 79.88 C 180.97 82.69 178.41 85.98 174.79 87.94 C 170.90 75.22 166.24 62.76 162.20 50.09 C 160.93 45.86 158.67 41.84 158.52 37.34 Z" />
<path fill="#282629" opacity="1.00" d=" M 187.37 90.37 C 189.49 87.97 191.71 85.62 194.40 83.84 C 194.46 103.70 194.57 123.58 194.38 143.44 C 191.60 140.50 191.04 136.38 189.85 132.68 C 187.65 125.09 184.76 117.73 182.41 110.19 C 181.26 106.47 179.34 102.89 179.29 98.92 C 181.45 95.61 184.76 93.30 187.37 90.37 Z" />
<path fill="#282629" opacity="1.00" d=" M 114.40 163.40 C 133.02 144.76 151.74 126.21 170.22 107.44 C 172.91 111.53 173.88 116.40 175.50 120.95 C 180.61 136.15 185.48 151.43 190.76 166.57 C 191.32 168.22 191.61 169.94 191.92 171.65 C 163.62 171.68 135.32 171.68 107.02 171.65 C 108.78 168.33 111.88 166.08 114.40 163.40 Z" />
<path fill="#282629" opacity="1.00" d=" M 106.65 182.67 C 109.56 181.16 112.87 181.67 116.01 181.63 C 137.67 181.61 159.34 181.66 181.01 181.60 C 182.86 181.50 184.67 181.94 186.37 182.69 C 173.53 195.73 160.34 208.43 147.65 221.61 C 147.08 221.61 145.93 221.61 145.35 221.60 C 132.63 208.46 119.47 195.73 106.65 182.67 Z" />
</g>
<g id="#fcfbfdff">
<path fill="#fcfbfd" opacity="1.00" d=" M 144.54 13.46 C 145.45 12.04 147.59 12.09 148.51 13.47 C 167.05 32.15 185.77 50.70 204.31 69.37 C 204.65 100.90 204.35 132.46 204.45 164.00 C 204.34 168.83 204.69 173.68 204.32 178.50 C 201.11 182.53 197.07 185.80 193.52 189.51 C 178.60 204.61 163.44 219.45 148.59 234.62 C 147.64 236.04 145.36 236.02 144.41 234.61 C 107.81 197.62 70.75 161.08 34.19 124.06 C 36.13 122.05 38.04 120.00 40.00 118.00 C 74.86 83.16 109.68 48.30 144.54 13.46 M 145.91 35.65 C 135.18 67.77 124.52 99.95 113.84 132.09 C 111.19 140.75 107.64 149.13 105.40 157.91 C 110.76 153.46 115.45 148.28 120.43 143.42 C 136.03 127.54 152.12 112.13 167.46 96.00 C 160.88 77.97 155.23 59.59 149.15 41.39 C 148.27 39.57 148.66 35.52 145.91 35.65 M 48.11 124.00 C 60.43 136.64 73.02 149.01 85.46 161.53 C 87.43 163.56 89.66 165.38 91.21 167.77 C 91.87 166.16 92.67 164.61 93.31 162.99 C 105.12 126.55 117.64 90.34 129.49 53.92 C 131.29 48.35 133.52 42.91 134.70 37.17 C 106.01 66.26 76.88 94.96 48.11 124.00 M 158.52 37.34 C 158.67 41.84 160.93 45.86 162.20 50.09 C 166.24 62.76 170.90 75.22 174.79 87.94 C 178.41 85.98 180.97 82.69 183.88 79.88 C 186.17 77.52 188.67 75.35 190.82 72.85 C 191.61 72.17 191.89 70.74 191.00 70.02 C 180.21 59.10 169.18 48.39 158.52 37.34 M 187.37 90.37 C 184.76 93.30 181.45 95.61 179.29 98.92 C 179.34 102.89 181.26 106.47 182.41 110.19 C 184.76 117.73 187.65 125.09 189.85 132.68 C 191.04 136.38 191.60 140.50 194.38 143.44 C 194.57 123.58 194.46 103.70 194.40 83.84 C 191.71 85.62 189.49 87.97 187.37 90.37 M 114.40 163.40 C 111.88 166.08 108.78 168.33 107.02 171.65 C 135.32 171.68 163.62 171.68 191.92 171.65 C 191.61 169.94 191.32 168.22 190.76 166.57 C 185.48 151.43 180.61 136.15 175.50 120.95 C 173.88 116.40 172.91 111.53 170.22 107.44 C 151.74 126.21 133.02 144.76 114.40 163.40 M 106.65 182.67 C 119.47 195.73 132.63 208.46 145.35 221.60 C 145.93 221.61 147.08 221.61 147.65 221.61 C 160.34 208.43 173.53 195.73 186.37 182.69 C 184.67 181.94 182.86 181.50 181.01 181.60 C 159.34 181.66 137.67 181.61 116.01 181.63 C 112.87 181.67 109.56 181.16 106.65 182.67 Z" />
</g>
</svg>

<?xml version="1.0" encoding="utf-8"?>
<!-- Generator: Adobe Illustrator 26.0.3, SVG Export Plug-In . SVG Version: 6.00 Build 0)  -->
<svg version="1.1" id="Layer_1" xmlns="http://www.w3.org/2000/svg" xmlns:xlink="http://www.w3.org/1999/xlink" x="0px" y="0px"
	 viewBox="0 0 250 250" style="enable-background:new 0 0 250 250;" xml:space="preserve">
<style type="text/css">
	.st0{fill:#282629;}
	.st1{fill:#FCFBFD;}
</style>
<circle class="st0" cx="125" cy="125.5" r="125"/>
<g id="_x23_282629ff">
	<path class="st0" d="M145.9,35.7c2.8-0.1,2.4,3.9,3.2,5.7c6.1,18.2,11.7,36.6,18.3,54.6c-15.3,16.1-31.4,31.5-47,47.4
		c-5,4.9-9.7,10-15,14.5c2.2-8.8,5.8-17.2,8.4-25.8C124.5,99.9,135.2,67.8,145.9,35.7z"/>
	<path class="st0" d="M48.1,124c28.8-29,57.9-57.7,86.6-86.8c-1.2,5.7-3.4,11.2-5.2,16.8c-11.9,36.4-24.4,72.6-36.2,109.1
		c-0.6,1.6-1.4,3.2-2.1,4.8c-1.5-2.4-3.8-4.2-5.8-6.2C73,149,60.4,136.6,48.1,124z"/>
	<path class="st0" d="M158.5,37.3c10.7,11,21.7,21.8,32.5,32.7c0.9,0.7,0.6,2.2-0.2,2.8c-2.2,2.5-4.7,4.7-6.9,7
		c-2.9,2.8-5.5,6.1-9.1,8.1c-3.9-12.7-8.5-25.2-12.6-37.9C160.9,45.9,158.7,41.8,158.5,37.3z"/>
	<path class="st0" d="M187.4,90.4c2.1-2.4,4.3-4.8,7-6.5c0.1,19.9,0.2,39.7,0,59.6c-2.8-2.9-3.3-7.1-4.5-10.8
		c-2.2-7.6-5.1-14.9-7.4-22.5c-1.2-3.7-3.1-7.3-3.1-11.3C181.4,95.6,184.8,93.3,187.4,90.4z"/>
	<path class="st0" d="M114.4,163.4c18.6-18.6,37.3-37.2,55.8-56c2.7,4.1,3.7,9,5.3,13.5c5.1,15.2,10,30.5,15.3,45.6
		c0.6,1.6,0.9,3.4,1.2,5.1c-28.3,0-56.6,0-84.9,0C108.8,168.3,111.9,166.1,114.4,163.4z"/>
	<path class="st0" d="M106.7,182.7c2.9-1.5,6.2-1,9.4-1c21.7,0,43.3,0,65,0c1.9-0.1,3.7,0.3,5.4,1.1c-12.8,13-26,25.7-38.7,38.9
		c-0.6,0-1.7,0-2.3,0C132.6,208.5,119.5,195.7,106.7,182.7z"/>
</g>
<g id="_x23_fcfbfdff">
	<path class="st1" d="M144.5,13.5c0.9-1.4,3.1-1.4,4,0c18.5,18.7,37.3,37.2,55.8,55.9c0.3,31.5,0,63.1,0.1,94.6
		c-0.1,4.8,0.2,9.7-0.1,14.5c-3.2,4-7.2,7.3-10.8,11c-14.9,15.1-30.1,29.9-44.9,45.1c-0.9,1.4-3.2,1.4-4.2,0
		c-36.6-37-73.7-73.5-110.2-110.6c1.9-2,3.9-4.1,5.8-6.1C74.9,83.2,109.7,48.3,144.5,13.5 M145.9,35.7
		c-10.7,32.1-21.4,64.3-32.1,96.4c-2.6,8.7-6.2,17-8.4,25.8c5.4-4.4,10-9.6,15-14.5c15.6-15.9,31.7-31.3,47-47.4
		c-6.6-18-12.2-36.4-18.3-54.6C148.3,39.6,148.7,35.5,145.9,35.7 M48.1,124c12.3,12.6,24.9,25,37.3,37.5c2,2,4.2,3.9,5.8,6.2
		c0.7-1.6,1.5-3.2,2.1-4.8c11.8-36.4,24.3-72.7,36.2-109.1c1.8-5.6,4-11,5.2-16.8C106,66.3,76.9,95,48.1,124 M158.5,37.3
		c0.1,4.5,2.4,8.5,3.7,12.8c4,12.7,8.7,25.1,12.6,37.9c3.6-2,6.2-5.2,9.1-8.1c2.3-2.4,4.8-4.5,6.9-7c0.8-0.7,1.1-2.1,0.2-2.8
		C180.2,59.1,169.2,48.4,158.5,37.3 M187.4,90.4c-2.6,2.9-5.9,5.2-8.1,8.5c0.1,4,2,7.6,3.1,11.3c2.3,7.5,5.2,14.9,7.4,22.5
		c1.2,3.7,1.8,7.8,4.5,10.8c0.2-19.9,0.1-39.7,0-59.6C191.7,85.6,189.5,88,187.4,90.4 M114.4,163.4c-2.5,2.7-5.6,4.9-7.4,8.2
		c28.3,0,56.6,0,84.9,0c-0.3-1.7-0.6-3.4-1.2-5.1c-5.3-15.1-10.1-30.4-15.3-45.6c-1.6-4.5-2.6-9.4-5.3-13.5
		C151.7,126.2,133,144.8,114.4,163.4 M106.7,182.7c12.8,13.1,26,25.8,38.7,38.9c0.6,0,1.7,0,2.3,0c12.7-13.2,25.9-25.9,38.7-38.9
		c-1.7-0.8-3.5-1.2-5.4-1.1c-21.7,0.1-43.3,0-65,0C112.9,181.7,109.6,181.2,106.7,182.7z"/>
</g>
</svg>
